dist/svg/static/mileage-small.svg

<svg xmlns="http://www.w3.org/2000/svg" width="24" height="24" viewBox="0 0 24 24"><g fill="none" stroke="currentColor" stroke-miterlimit="10"><path d="M8.5 19.5h-7v-15h7M8.5 4.5h7v15h-7zM15.5 4.5h7v15h-7M23 1.5H1M1 22.5h22"/><g><path d="M3 9.5h3.25l-2.59 5.25M14 9.5h-3.5v2.6s2.91 0 2.91 1.66-3.16.91-3.16.91M17.53 16a2.2 2.2 0 0 1 1.66-.55c1.075.062 1.318 1.183 1.077 1.764-.434 1.043-1.077 2.286-2.767 2.286M19.5 4.5V9"/></g></g></svg>

<?xml version="1.0" encoding="UTF-8" standalone="no"?>
<svg width="24px" height="24px" viewBox="0 0 24 24" version="1.1" xmlns="http://www.w3.org/2000/svg" xmlns:xlink="http://www.w3.org/1999/xlink">
    <!-- Generator: sketchtool 46.2 (44496) - http://www.bohemiancoding.com/sketch -->
    <title>mileage-small</title>
    <desc>Created with sketchtool.</desc>
    <defs></defs>
    <g id="icons-published" stroke="none" stroke-width="1" fill="none" fill-rule="evenodd">
        <g id="briefing" transform="translate(-68.000000, -1050.000000)"></g>
        <g id="mileage-small" stroke="#000000">
            <path d="M8.5,19.5 L1.5,19.5 L1.5,4.5 L8.5,4.5 L8.5,19.5 Z M8.5,4.5 L15.5,4.5 L15.5,19.5 L8.5,19.5 L8.5,4.5 Z M15.5,4.5 L22.5,4.5 L22.5,19.5 L15.5,19.5 L15.5,4.5 Z M23,1.5 L1,1.5 L23,1.5 Z M1,22.5 L23,22.5 L1,22.5 Z" id="Shape"></path>
            <path d="M3,9.5 L6.2,9.5 L3.6,14.7 M14,9.5 L10.5,9.5 L10.5,12.1 C10.5,12.1 13.4,12.1 13.4,13.8 C13.4,15.5 10.2,14.7 10.2,14.7 M17.5,16 C18,15.6 18.6,15.4 19.2,15.4 C20.3,15.5 20.5,16.6 20.3,17.2 C19.9,18.2 19.2,19.5 17.5,19.5 M19.5,4.5 L19.5,9" id="Shape"></path>
        </g>
    </g>
</svg>
